X: 957
T: The downfall of Paris
C: anon.
O: Ireland
B: Francis O'Neill: "The Dance Music of Ireland" (1907) no. 957
R: Long dance, set dance
Z: Transcribed by Frank Nordberg - http://www.musicaviva.com
F: http://www.musicaviva.com/abc/tunes/ireland/oneill-1001/oneill-1001-095
7.abc
M: 2/4
L: 1/16
K: G
(3(DEF)|G2(GA) G2(GA)|G2(AB) cBAG|A2(AB) A2(AB)|A2(AB) cBAG|B2(BA) B2(BA)
|Bdg(f e)dcB|A2(AB) A2(AB)|ABcA (GFED)|G2(GA) G2(GA)|G2(AB) cBAG|A2(AB) A
2(AB)|A2(AB) cBAG|B(ABc ) d2(dc)|B(ABc) d(edc)|(3(Bcd)(BG) (3(ABc)(AF)|G2
G2G2:|
|:(Bc)|d2(dB) d2(dB)|e2d2c2B2|c2(cB) c2(cB)|d2c2B2A2|B2(BA) B2(BA)|Bdg(f
ed)cB|A2(AB) A2(AB)|ABcA G(FED)|
G2(GA)G2(GA)|G2(AB) cBAG|A2(AB) A2(AB)|A2(AB) cBAG|B(ABc) ded(c|B)ABc d(e
dc)|(3(Bcd)(BG) (3(ABc)(AF)|G2G2G2:|
|:(Bc)|d2(ef) gfed|Bdg(e dc)BA|G2G2A2A2|B2B2 A2(Bc)|d2(ef) gfed|Bdg(e dc)
BA|G2(3(ABc) BGAF G2G2G2:|
|:(BAG)|F2G2A2B2|c2B2A2G2|F2(FG) A2B2|c2B2 A2(Bc)|d2(ef) gfed|Bdg(e dc)BA
|G2(3(ABc) BGAF G2G2G2:|
W:
W:
W: From Musica Viva - http://www.musicaviva.com
W: the Internet center for free sheet music downloads.


